theme/img/top/txt_c.svg

<svg width="117" height="131" viewBox="0 0 117 131" fill="none" xmlns="http://www.w3.org/2000/svg">
<path d="M84.4287 46.2422C81.4502 32.6191 73.5645 25.8076 60.7715 25.8076C52.959 25.8076 46.6113 28.3223 41.7285 33.3516C38.8965 36.2812 36.8213 39.5527 35.5029 43.166C33.0615 49.8066 31.8408 57.082 31.8408 64.9922C31.8408 72.4141 33.0127 79.4453 35.3564 86.0859C37.6514 92.4336 41.46 97.1943 46.7822 100.368C51.1279 103.005 56.0107 104.323 61.4307 104.323C66.8018 104.323 71.5137 102.98 75.5664 100.295C79.2773 97.8047 82.0117 94.4111 83.7695 90.1143C84.502 88.2588 85.0879 85.5977 85.5273 82.1309L116.875 86.7451C115.508 92.7998 113.994 97.707 112.334 101.467C108.184 110.646 102.202 117.678 94.3896 122.561C90.4834 124.953 85.8936 126.833 80.6201 128.2C74.8096 129.714 68.7305 130.471 62.3828 130.471C53.2031 130.471 44.5117 128.957 36.3086 125.93C24.9316 121.73 16.0693 114.138 9.72168 103.151C6.49902 97.585 4.05762 90.9443 2.39746 83.2295C1.17676 77.3213 0.566406 71.2666 0.566406 65.0654C0.566406 55.2998 2.10449 45.998 5.18066 37.1602C8.0127 28.957 12.5293 21.8281 18.7305 15.7734C23.8574 10.6953 29.8389 6.91113 36.6748 4.4209C44.585 1.54004 52.959 0.0996094 61.7969 0.0996094C81.3281 0.0996094 96.0742 6.64258 106.035 19.7285C109.355 24.0254 111.846 28.6396 113.506 33.5713C114.043 35.1826 114.629 37.4043 115.264 40.2363L84.4287 46.2422Z" fill="url(#paint0_linear_3_312)"/>
<defs>
<linearGradient id="paint0_linear_3_312" x1="-4.99999" y1="-40.8158" x2="802.828" y2="387.126" gradientUnits="userSpaceOnUse">
<stop stop-color="#001F63"/>
<stop offset="1" stop-color="#00E1EC"/>
</linearGradient>
</defs>
</svg>

<svg xmlns="http://www.w3.org/2000/svg" width="117" height="131" fill="none"><path fill="url(#a)" d="M84.429 46.242Q79.96 25.808 60.772 25.808q-11.719 0-19.043 7.544-4.249 4.394-6.226 9.814-3.662 9.96-3.662 21.826 0 11.133 3.515 21.094 3.443 9.522 11.426 14.282 6.519 3.955 14.649 3.955 8.056 0 14.135-4.028 5.567-3.736 8.203-10.18 1.1-2.784 1.758-7.984l31.348 4.614q-2.05 9.082-4.541 14.722-6.225 13.769-17.944 21.094-5.86 3.588-13.77 5.639-8.716 2.271-18.237 2.271-13.77 0-26.074-4.541-17.066-6.3-26.587-22.779-4.834-8.35-7.325-19.921-1.83-8.863-1.83-18.165 0-14.648 4.614-27.905 4.247-12.304 13.55-21.387 7.69-7.617 17.944-11.352Q48.54.1 61.797.1q29.297 0 44.238 19.629 4.98 6.444 7.471 13.842.805 2.417 1.758 6.665z"/><defs><linearGradient id="a" x1="-5" x2="802.828" y1="-40.816" y2="387.126" gradientUnits="userSpaceOnUse"><stop stop-color="#001F63"/><stop offset="1" stop-color="#00E1EC"/></linearGradient></defs></svg>
